X:147
T:Robinson Cruso. THO5.147
T:Robinson Crusoe aka THO5.147
O:Lower voice violin, upper voice German Flute
M:6/8
L:1/8
B:Thompson's Complete Collection of 200 Favourite Dances Vol.5
F:https://www.libraryofdance.org/manuals/1780c-Thompson-Compleat-5.pdf
Z:vmp. Peter Dunk 2024
Q:3/8=100
K:D
A|d2d {d}cBc|d3 def|{a}gfg e2a|{g}Tf3-e2A|
B2B Bcd|AFD D2d|Bgf edc|d3-d2:|
%
|:a &A|agf ceg &AGF CEG|a2f d2f &A2F D2F|age ceg &AGE CEG|a2f d2a &A2F D2A|
bgd d'd'd' &BGD ddd|afd dd'd' &AFD Ddd|aba agf &ABA AGF|F3-E2A|
%
d2d cBc|d3 def|{a}gfg e2a|{g}Tf3-e2A|
B2B Bcd|AFD D2d|Bgf edc|d3 D2:|
W:
W:First Gent set to the 2nd Lady and turn ./.
W:1st Lady set to the 2nd Gent and turns ./:
W:lead down two Couples, up again and cast of right and left at top :/.
W:lead out-sides :/:

